X:1
T:Il vostro vago viso
T:Lodovico Agostini
T:Il vostro vago viso
C:Lodovico Agostini
%%score [ 1 2 3 4 ]
L:1/8
Q:1/4=120
M:4/2
K:F
V:1 alto1 nm="Soprano" snm="S"
V:2 alto nm="Alto" snm="A"
V:3 tenor nm="Tenor" snm="T"
V:4 bass nm="Bass" snm="B"
V:1
 z16 | A8 =B6 c2 | A2 A2 G4 F4 ^F4- | F4 ^F4 G8 | G4 A4 A4 A4 | B8 A4 z2 A2- | A2 A2 A4 ^G6 G2 | %7
w: |Il vo- stro|va- go vi- so il dol-|* ce as- pet-|to, Si- gno- ra|ca- ra e i|_ begl' oc- chi o- ve|
 !courtesy!=G4 G4 ^F6 G2 | E4 E4 ^F4 z2 A2 | A4 c4 B8 | A4 z2 G2 A4 B4 | A4 z2 c2 B4 A4 | %12
w: tie- ne A- mor il|ni- do suo il|suo ri- cet-|to, Bel- ta- de in|voi in me ca-|
 G4 F4 E8 | E4 z2 F2 G4 G4- | G2 G2 A4 A4 c4 | B4 B4 A8 | G4 F4 _E8 | _E4 G6 ^F=E F4 | G4 A8 A4 | %19
w: gio- nan pe-|ne, Et il can-|* di- do col- lo il|bian- co pet-|to, L'a- cer-|be po- * * *|ma di dol-|
 B12 B4 | c8 A8 | z4 A4 A6 A2 | A2 =B2 c4 c2 B4 A2 | G4 ^F4 z2 G2 G4 | G2 G4 G2 A4 B4 | %25
w: cez- za|pie- ne,|L'an- ge- li-|ci sem- bian- ti e lau- re e|chio- me, A- van-|zan di bel- ta- de il|
 G4 G2 G4 ^FE F4 | G4 z2 =B2 B4 B2 c2- | c2 c2 A4 B4 G4 | G4 G6 ^FE F4 | G16 |] %30
w: vo- stro no- * * *|me, A- van- zan di|_ bel- ta- de il vo-|stro no- * * *|me,|
V:2
 z16 | ^F8 G6 G2 | F2 F2 _E4 D4 D4- | D4 D4 D8 | E4 F4 F4 F4 | F8 F4 z2 F2- | F2 F2 E4 E6 E2 | %7
w: |Il vo- stro|va- go vi- so il dol-|* ce as- pet-|to, Si- gno- ra|ca- ra e i|_ begl' oc- chi o- ve|
 D4 _E4 D6 D2 | C4 ^C4 D4 z2 F2 | F4 G4 G8 | ^F4 z2 D2 =F4 F4 | F4 z2 G2 G4 F4 | D6 C2 =B,8 | %13
w: tie- ne A- mor il|ni- do suo il|suo ri- cet-|to, Bel- ta- de in|voi in me ca-|gio- nan pe-|
 ^C4 z2 D2 _E4 D4- | D2 E2 F4 ^F4 G4 | G6 F2 F8 | E4 D4 C4 B,2 A,2 | B,4 C4 D8 | D4 F8 F4 | %19
w: ne, Et il can-|* di- do col- lo il|bian- * pet-|to, L'a- cer- * *|* be po-|ma di dol-|
 G12 G4 | G8 ^F8 | z4 E4 E6 E2 | ^F2 G2 A4 G2 G4 D2 | D4 D4 z2 D2 D4 | D2 E4 E2 F4 F4 | _E4 E4 D8 | %26
w: cez- za|pie- ne,|L'an- ge- li-|ci sem- bian- ti e lau- re e|chio- me, A- van-|zan di bel- ta- de il|vo- stro no-|
 D4 z2 G2 G4 G2 G2- | G2 G2 F4 F4 _E4- | E4 _E4 D8 | D16 |] %30
w: me, A- van- zan di|_ bel- ta- de il vo-|stro no- no-|me,|
V:3
 z16 | D8 D6 _E2 | C2 D2 B,4 B,4 A,4- | A,4 A,4 =B,8 | C4 C4 C4 C4 | D8 C4 z2 D2- | %6
w: |Il vo- stro|va- go vi- so il dol-|* ce as- pet-|to, Si- gno- ra|ca- ra e i|
 D2 D2 C4 =B,6 B,2 | =B,4 C4 A,6 _B,2 | G,4 A,4 A,4 z2 D2 | C4 _E4 D8 | D4 z2 =B,2 C4 D4 | %11
w: _ begl' oc- chi o- ve|tie- ne A- mor il|ni- do suo il|suo ri- cet-|to, Bel- ta- de in|
 C4 z2 _E2 E4 D2 C2- | C2 B,2 A,6 ^G,^F, G,4 | A,4 z2 A,2 C4 =B,4- | B,2 =B,2 C4 D4 _E4 | %15
w: voi in me ca- gio-|* nan pe- * * *|ne, Et il can-|* di- do col- lo il|
 _E6 D2 C8 | C4 A,4 G,8- | G,4 G,4 A,8 | =B,4 C8 C4 | _E12 E4 | _E8 D8 | z4 ^C4 C6 C2 | %22
w: bian- co pet-|to, L'a- cer-|* be po-|ma di dol-|cez- za|pie- ne,|L'an- ge- li-|
 D2 D2 F4 _E2 D4 A,2 | B,4 A,4 z2 =B,2 B,4 | =B,2 C4 C2 C4 D4 | B,4 C4 A,8 | G,4 z2 D2 D4 D2 _E2- | %27
w: ci sem- bian- ti e lau- re e|chio- me, A- van-|zan di bel- ta- de il|vo- stro no-|me, A- van- zan di|
 E2 _E2 C4 D4 B,4- | B,4 C4 A,8 | G,16 |] %30
w: _ bel- ta- de il vo-|stro no- no-|me,|
V:4
 z16 | D,8 G,6 C,2 | F,2 D,2 _E,4 B,,4 D,4- | D,4 D,4 G,8 | C,4 F,4 F,4 F,4 | B,,8 F,4 z2 D,2- | %6
w: |Il vo- stro|va- go vi- so il dol-|* ce as- pet-|to, Si- gno- ra|ca- ra e i|
 D,2 D,2 A,,4 E,6 E,2 | G,4 C,4 D,6 G,,2 | C,4 A,,4 D,4 z2 D,2 | F,4 C,4 G,8 | %10
w: _ begl' oc- chi o- ve|tie- ne A- mor il|ni- do suo il|suo ri- cet-|
 D,4 z2 G,2 F,4 B,,4 | F,4 z2 C,2 _E,4 F,4 | G,4 D,4 E,8 | A,,4 z2 D,2 C,4 G,4- | %14
w: to, Bel- ta- de in|voi in me ca-|gio- nan pe-|ne, Et il can-|
 G,2 G,2 F,4 D,4 C,4 | _E,6 B,,2 F,8 | C,4 D,4 _E,8- | E,4 _E,4 D,8 | G,,4 F,8 F,4 | _E,12 E,4 | %20
w: * di- do col- lo il|bian- co pet-|to, L'a- cer-|* be po-|ma di dol-|cez- za|
 C,8 D,8 | z4 A,4 A,6 A,2 | D,2 G,2 F,4 C,2 G,4 ^F,2 | G,4 D,4 z2 G,2 G,4 | G,2 C,4 C,2 F,4 B,,4 | %25
w: pie- ne,|L'an- ge- li-|ci sem- bian- ti e lau- re e|chio- me, A- van-|zan di bel- ta- de il|
 _E,4 C,4 D,8 | G,,4 z2 G,2 G,4 G,2 C,2- | C,2 C,2 F,4 B,,4 _E,4- | E,4 C,4 D,8 | G,,16 |] %30
w: vo- stro no-|me, A- van- zan di|_ bel- ta- de il vo-|stro no- no-|me,|

